outputs/icons/editor/format_shapes_round.svg

<svg xmlns="http://www.w3.org/2000/svg" width="1200" height="1200" fill="none"><g clip-path="url(#a)"><path fill="#000" d="M1150 300V100c0-27.5-22.5-50-50-50H900c-27.5 0-50 22.5-50 50v50H350v-50c0-27.5-22.5-50-50-50H100c-27.5 0-50 22.5-50 50v200c0 27.5 22.5 50 50 50h50v500h-50c-27.5 0-50 22.5-50 50v200c0 27.5 22.5 50 50 50h200c27.5 0 50-22.5 50-50v-50h500v50c0 27.5 22.5 50 50 50h200c27.5 0 50-22.5 50-50V900c0-27.5-22.5-50-50-50h-50V350h50c27.5 0 50-22.5 50-50M150 150h100v100H150zm100 900H150V950h100zm600-100H350v-50c0-27.5-22.5-50-50-50h-50V350h50c27.5 0 50-22.5 50-50v-50h500v50c0 27.5 22.5 50 50 50h50v500h-50c-27.5 0-50 22.5-50 50zm200 100H950V950h100zM950 250V150h100v100zM647 382.5c-7.5-19.5-26.5-32.5-47.5-32.5s-40 13-47 32.5L414 749c-9.5 24.5 8.5 51 35 51 16 0 30-10 35.5-25l27.5-75h174.5l28 75.5C720 790 734 800 750 800h.5c26.5 0 44.5-26.5 35.5-51zM534.5 637 600 445.5 665 637z"/></g><defs><clipPath id="a"><path fill="#fff" d="M0 0h1200v1200H0z"/></clipPath></defs></svg>

<svg width="1200" height="1200" viewBox="0 0 1200 1200" fill="none" xmlns="http://www.w3.org/2000/svg"><g clip-path="url(#clip0_238_224)"><path d="M1150 300V100C1150 72.5 1127.5 50 1100 50H900C872.5 50 850 72.5 850 100V150H350V100C350 72.5 327.5 50 300 50H100C72.5 50 50 72.5 50 100V300C50 327.5 72.5 350 100 350H150V850H100C72.5 850 50 872.5 50 900V1100C50 1127.5 72.5 1150 100 1150H300C327.5 1150 350 1127.5 350 1100V1050H850V1100C850 1127.5 872.5 1150 900 1150H1100C1127.5 1150 1150 1127.5 1150 1100V900C1150 872.5 1127.5 850 1100 850H1050V350H1100C1127.5 350 1150 327.5 1150 300ZM150 150H250V250H150V150ZM250 1050H150V950H250V1050ZM850 950H350V900C350 872.5 327.5 850 300 850H250V350H300C327.5 350 350 327.5 350 300V250H850V300C850 327.5 872.5 350 900 350H950V850H900C872.5 850 850 872.5 850 900V950ZM1050 1050H950V950H1050V1050ZM950 250V150H1050V250H950ZM647 382.5C639.5 363 620.5 350 599.5 350C578.5 350 559.5 363 552.5 382.5L414 749C404.5 773.5 422.5 800 449 800C465 800 479 790 484.5 775L512 700H686.5L714.5 775.5C720 790 734 800 750 800H750.5C777 800 795 773.5 786 749L647 382.5ZM534.5 637L600 445.5L665 637H534.5Z" fill="black"/></g><defs><clipPath id="clip0_238_224"><path width="24" fill="white" d="M0 0H1200V1200H0V0z"/></clipPath></defs></svg>
